apps/earn-protocol-landing-page/public/img/landing-page/best-of-decentralised-finance_permissionless.svg

<svg width="427" height="319" viewBox="0 0 427 319" fill="none" xmlns="http://www.w3.org/2000/svg">
  <circle opacity="0.1" cx="213.719" cy="176" r="119.5" fill="url(#paint0_linear_10236_137600)"
    stroke="#3D3D3D" />
  <circle opacity="0.2" cx="214" cy="176" r="65.5" fill="url(#paint1_linear_10236_137600)"
    stroke="url(#paint2_linear_10236_137600)" />
  <circle opacity="0.2" cx="214" cy="176" r="167" stroke="url(#paint3_linear_10236_137600)"
    stroke-linecap="round" stroke-dasharray="2 6" />
  <circle cx="128.516" cy="260" r="31.5" fill="#F48C16" />
  <circle cx="128.516" cy="260" r="31.5" fill="url(#paint4_linear_10236_137600)" />
  <circle cx="128.516" cy="260" r="31.5" fill="url(#paint5_linear_10236_137600)" />
  <path
    d="M145.831 260.6C145.831 258.603 140.398 256.937 133.177 256.553L133.177 253.371H142.192V246.75H117.541V253.371H126.555V256.568C119.467 256.979 114.164 258.627 114.164 260.6C114.164 262.572 119.467 264.221 126.555 264.631V276.055H133.177V264.646C140.398 264.263 145.831 262.596 145.831 260.6ZM129.997 262.567C122.247 262.567 115.965 261.367 115.965 259.887C115.965 258.633 120.47 257.581 126.555 257.288V258.043H126.556V261.135C127.653 261.196 128.806 261.228 129.997 261.228C131.094 261.228 132.159 261.2 133.178 261.149V257.276C139.395 257.551 144.03 258.615 144.03 259.887C144.03 261.367 137.747 262.567 129.997 262.567Z"
    fill="#FFFBFD" />
  <g clip-path="url(#clip0_10236_137600)">
    <path
      d="M298.219 123C315.892 123 330.219 108.673 330.219 91C330.219 73.3269 315.892 59 298.219 59C280.546 59 266.219 73.3269 266.219 91C266.219 108.673 280.546 123 298.219 123Z"
      fill="#9391F7" />
    <path
      d="M298.219 123C315.892 123 330.219 108.673 330.219 91C330.219 73.3269 315.892 59 298.219 59C280.546 59 266.219 73.3269 266.219 91C266.219 108.673 280.546 123 298.219 123Z"
      fill="url(#paint6_linear_10236_137600)" />
    <path fill-rule="evenodd" clip-rule="evenodd"
      d="M284.733 75.2185C292.817 67.9325 305.206 67.9325 313.29 75.2185L314.784 73.7454C305.865 65.637 292.123 65.637 283.203 73.7454L284.733 75.2185ZM316.166 75.0891L314.672 76.5622C322.064 84.5297 322.064 96.7407 314.672 104.708L316.166 106.181C324.393 97.3903 324.393 83.8461 316.166 75.0547V75.0891ZM283.337 76.5955C275.954 84.561 275.954 96.7613 283.337 104.727L281.842 106.249C273.615 97.4575 273.615 83.9139 281.842 75.1224L283.337 76.5955ZM313.276 106.086C305.192 113.372 292.802 113.372 284.719 106.086L283.224 107.559C292.144 115.667 305.885 115.667 314.805 107.559L313.276 106.086ZM297.839 89.4981C299.641 89.5297 303.542 89.5981 303.565 86.9019C303.588 84.1421 299.808 84.2393 297.97 84.2866C297.765 84.2919 297.584 84.2965 297.435 84.2965L297.392 89.4925C297.519 89.4925 297.67 89.4951 297.839 89.4981ZM297.827 97.83C299.978 97.861 304.691 97.9291 304.716 94.9687C304.741 91.9462 300.234 92.0446 298.022 92.0929C297.77 92.0984 297.547 92.1033 297.365 92.1028L297.317 97.8247C297.463 97.8247 297.634 97.8272 297.827 97.83ZM302.128 81.3126C305.525 81.6272 308.203 82.6596 308.476 85.7368C308.686 87.9883 307.714 89.3401 306.18 90.107C308.688 90.7018 310.248 92.1765 309.907 95.4799C309.485 99.5846 306.38 100.666 301.939 100.932L301.903 105.218H299.27L299.306 100.966H297.206L297.17 105.238H294.542L294.579 100.902H292.698H289.274L289.822 97.8001C289.822 97.8001 291.768 97.8296 291.733 97.8001C291.736 97.8006 291.739 97.8006 291.742 97.8006C292.255 97.8316 292.7 97.4467 292.736 96.9399L292.834 85.2551C292.735 84.5398 292.079 84.0355 291.351 84.1146C291.381 84.0802 289.44 84.1146 289.44 84.1146L289.463 81.3372H293.116H294.788L294.824 77.0703H297.436L297.401 81.2536C298.103 81.2291 298.81 81.2291 299.502 81.2291L299.537 77.0703H302.164L302.128 81.3126Z"
      fill="#FFFBFD" />
  </g>
  <g clip-path="url(#clip1_10236_137600)">
    <path
      d="M298.219 292C315.892 292 330.219 277.673 330.219 260C330.219 242.327 315.892 228 298.219 228C280.546 228 266.219 242.327 266.219 260C266.219 277.673 280.546 292 298.219 292Z"
      fill="url(#paint7_linear_10236_137600)" />
    <path
      d="M298.219 292C315.892 292 330.219 277.673 330.219 260C330.219 242.327 315.892 228 298.219 228C280.546 228 266.219 242.327 266.219 260C266.219 277.673 280.546 292 298.219 292Z"
      fill="url(#paint8_linear_10236_137600)" />
    <path
      d="M293.234 277.799C293.234 278.466 292.789 278.688 292.123 278.688C283.902 276.022 278.125 268.468 278.125 259.58C278.125 250.693 283.902 243.138 292.123 240.472C292.789 240.25 293.234 240.694 293.234 241.361V242.916C293.234 243.36 293.012 243.805 292.567 244.027C286.124 246.471 281.68 252.47 281.68 259.58C281.68 266.69 286.346 272.911 292.567 275.133C293.012 275.355 293.234 275.8 293.234 276.244V277.799Z"
      fill="white" />
    <path
      d="M299.906 272.238C299.906 272.683 299.461 273.127 299.017 273.127H297.239C296.795 273.127 296.351 272.683 296.351 272.238V269.572C292.796 269.128 291.018 267.128 290.352 264.239C290.352 263.795 290.574 263.351 291.018 263.351H293.018C293.462 263.351 293.684 263.573 293.907 264.017C294.351 265.573 295.24 266.906 298.128 266.906C300.35 266.906 301.905 265.795 301.905 264.017C301.905 262.24 301.017 261.573 297.906 261.129C293.24 260.462 291.018 259.129 291.018 255.352C291.018 252.463 293.24 250.242 296.351 249.797V247.131C296.351 246.687 296.795 246.242 297.239 246.242H299.017C299.461 246.242 299.906 246.687 299.906 247.131V249.797C302.572 250.242 304.349 251.797 304.794 254.241C304.794 254.685 304.572 255.13 304.127 255.13H302.35C301.905 255.13 301.683 254.908 301.461 254.463C301.017 252.908 299.906 252.241 297.906 252.241C295.684 252.241 294.573 253.352 294.573 254.908C294.573 256.463 295.24 257.352 298.573 257.796C303.238 258.463 305.46 259.796 305.46 263.573C305.46 266.461 303.238 268.905 299.906 269.572V272.238Z"
      fill="white" />
    <path
      d="M304.127 278.689C303.46 278.911 303.016 278.467 303.016 277.8V276.245C303.016 275.801 303.238 275.356 303.682 275.134C310.126 272.69 314.569 266.691 314.569 259.581C314.569 252.471 309.903 246.25 303.682 244.028C303.238 243.805 303.016 243.361 303.016 242.917V241.361C303.016 240.695 303.46 240.473 304.127 240.473C312.125 243.139 318.124 250.693 318.124 259.581C318.124 268.468 312.348 276.023 304.127 278.689Z"
      fill="white" />
  </g>
  <path
    d="M128.516 123C146.189 123 160.516 108.673 160.516 91C160.516 73.3269 146.189 59 128.516 59C110.843 59 96.5156 73.3269 96.5156 91C96.5156 108.673 110.843 123 128.516 123Z"
    fill="#2470FF" />
  <path
    d="M128.516 123C146.189 123 160.516 108.673 160.516 91C160.516 73.3269 146.189 59 128.516 59C110.843 59 96.5156 73.3269 96.5156 91C96.5156 108.673 110.843 123 128.516 123Z"
    fill="url(#paint9_linear_10236_137600)" />
  <path d="M129 73.5V97.6741L117.625 91.3248L129 73.5Z" fill="#FFFBFD" />
  <path d="M129 73.5L140.375 91.3248L129 97.6741V73.5Z" fill="#FFFBFD" />
  <path d="M129 99.7088V108.5L117.625 93.3626L129 99.7088Z" fill="#FFFBFD" />
  <path d="M129 108.5V99.7088L140.376 93.3626L129 108.5Z" fill="#FFFBFD" />
  <circle cx="213.688" cy="174.689" r="35" transform="rotate(45 213.688 174.689)"
    fill="url(#paint10_linear_10236_137600)" />
  <path fill-rule="evenodd" clip-rule="evenodd"
    d="M225.481 169.982C223.528 171.935 220.362 171.935 218.41 169.982C216.457 168.03 216.457 164.864 218.41 162.911C220.362 160.959 223.528 160.959 225.481 162.911C227.433 164.864 227.433 168.03 225.481 169.982ZM216.148 174.597C220.053 177.382 225.512 177.022 229.016 173.518C232.922 169.613 232.922 163.281 229.016 159.376C225.111 155.471 218.779 155.471 214.874 159.376C211.371 162.879 211.01 168.334 213.792 172.239L199.552 186.478C198.902 187.129 198.902 188.184 199.552 188.835C200.203 189.486 201.259 189.486 201.909 188.835L203.087 187.658C203.088 187.658 203.088 187.659 203.089 187.66L205.446 190.017C206.097 190.668 207.152 190.668 207.803 190.017C208.454 189.366 208.454 188.311 207.803 187.66L205.446 185.303C205.445 185.302 205.445 185.301 205.444 185.301L206.619 184.126L206.621 184.128L210.157 187.663C210.808 188.314 211.863 188.314 212.514 187.663C213.165 187.013 213.165 185.957 212.514 185.306L208.978 181.771L208.976 181.769L216.148 174.597Z"
    fill="#FFFBFD" />
  <defs>
    <linearGradient id="paint0_linear_10236_137600" x1="93.7188" y1="176" x2="333.719" y2="176"
      gradientUnits="userSpaceOnUse">
      <stop stop-color="#FF49A4" stop-opacity="0.5" />
      <stop offset="0.93" stop-color="#B049FF" stop-opacity="0.5" />
    </linearGradient>
    <linearGradient id="paint1_linear_10236_137600" x1="148" y1="176" x2="280" y2="176"
      gradientUnits="userSpaceOnUse">
      <stop stop-color="#FF49A4" stop-opacity="0.5" />
      <stop offset="0.93" stop-color="#B049FF" stop-opacity="0.5" />
    </linearGradient>
    <linearGradient id="paint2_linear_10236_137600" x1="148" y1="176" x2="280" y2="176"
      gradientUnits="userSpaceOnUse">
      <stop stop-color="#FF49A4" />
      <stop offset="0.93" stop-color="#B049FF" />
    </linearGradient>
    <linearGradient id="paint3_linear_10236_137600" x1="47" y1="176" x2="381" y2="176"
      gradientUnits="userSpaceOnUse">
      <stop stop-color="#FF49A4" />
      <stop offset="0.93" stop-color="#B049FF" />
    </linearGradient>
    <linearGradient id="paint4_linear_10236_137600" x1="147.793" y1="245.214" x2="107.17"
      y2="276.372" gradientUnits="userSpaceOnUse">
      <stop stop-color="#FA43BD" />
      <stop offset="1" stop-color="#FFA930" />
    </linearGradient>
    <linearGradient id="paint5_linear_10236_137600" x1="97.0156" y1="260" x2="160.016" y2="260"
      gradientUnits="userSpaceOnUse">
      <stop stop-color="#732860" />
      <stop offset="0.93" stop-color="#651C8D" />
    </linearGradient>
    <linearGradient id="paint6_linear_10236_137600" x1="266.219" y1="91" x2="330.219" y2="91"
      gradientUnits="userSpaceOnUse">
      <stop stop-color="#732860" />
      <stop offset="0.93" stop-color="#651C8D" />
    </linearGradient>
    <linearGradient id="paint7_linear_10236_137600" x1="266.219" y1="260" x2="330.219" y2="260"
      gradientUnits="userSpaceOnUse">
      <stop stop-color="#FF49A4" />
      <stop offset="0.93" stop-color="#B049FF" />
    </linearGradient>
    <linearGradient id="paint8_linear_10236_137600" x1="266.219" y1="260" x2="330.219" y2="260"
      gradientUnits="userSpaceOnUse">
      <stop stop-color="#732860" />
      <stop offset="0.93" stop-color="#651C8D" />
    </linearGradient>
    <linearGradient id="paint9_linear_10236_137600" x1="96.5156" y1="91" x2="160.516" y2="91"
      gradientUnits="userSpaceOnUse">
      <stop stop-color="#732860" />
      <stop offset="0.93" stop-color="#651C8D" />
    </linearGradient>
    <linearGradient id="paint10_linear_10236_137600" x1="178.687" y1="174.689" x2="248.687"
      y2="174.689" gradientUnits="userSpaceOnUse">
      <stop stop-color="#FF49A4" />
      <stop offset="0.93" stop-color="#B049FF" />
    </linearGradient>
    <clipPath id="clip0_10236_137600">
      <rect width="64" height="64" fill="white" transform="translate(266.219 59)" />
    </clipPath>
    <clipPath id="clip1_10236_137600">
      <rect width="64" height="64" fill="white" transform="translate(266.219 228)" />
    </clipPath>
  </defs>
</svg>

<svg xmlns="http://www.w3.org/2000/svg" width="427" height="319" fill="none" xmlns:v="https://vecta.io/nano"><circle opacity=".1" cx="213.719" cy="176" r="119.5" fill="url(#A)" stroke="#3d3d3d"/><circle opacity=".2" cx="214" cy="176" r="65.5" fill="url(#B)" stroke="url(#C)"/><circle opacity=".2" cx="214" cy="176" r="167" stroke="url(#D)" stroke-linecap="round" stroke-dasharray="2 6"/><circle cx="128.516" cy="260" r="31.5" fill="#f48c16"/><circle cx="128.516" cy="260" r="31.5" fill="url(#E)"/><circle cx="128.516" cy="260" r="31.5" fill="url(#F)"/><path d="M145.831 260.6c0-1.997-5.433-3.663-12.654-4.047v-3.182h9.015v-6.621h-24.651v6.621h9.014v3.197c-7.088.411-12.391 2.059-12.391 4.032s5.303 3.621 12.391 4.031v11.424h6.622v-11.409c7.221-.383 12.654-2.05 12.654-4.046zm-15.834 1.967c-7.75 0-14.032-1.2-14.032-2.68 0-1.254 4.505-2.306 10.59-2.599v.755h.001v3.092a62.17 62.17 0 0 0 3.441.093c1.097 0 2.162-.028 3.181-.079v-3.873c6.217.275 10.852 1.339 10.852 2.611 0 1.48-6.283 2.68-14.033 2.68z" fill="#fffbfd"/><g clip-path="url(#K)"><use href="#M" fill="#9391f7"/><use href="#M" fill="url(#G)"/><path fill-rule="evenodd" d="M284.733 75.219c8.084-7.286 20.473-7.286 28.557 0l1.494-1.473c-8.919-8.108-22.661-8.108-31.581 0l1.53 1.473zm31.433-.129l-1.494 1.473c7.392 7.968 7.392 20.179 0 28.146l1.494 1.473a22.71 22.71 0 0 0 0-31.126v.034zm-32.829 1.506c-7.383 7.966-7.383 20.166 0 28.132l-1.495 1.522c-8.227-8.791-8.227-22.335 0-31.127l1.495 1.473zm29.939 29.49c-8.084 7.286-20.474 7.286-28.557 0l-1.495 1.473c8.92 8.108 22.661 8.108 31.581 0l-1.529-1.473zm-15.437-16.588c1.802.032 5.703.1 5.726-2.596.023-2.76-3.757-2.663-5.595-2.615l-.535.01-.043 5.196.447.006zm-.012 8.332c2.151.031 6.864.099 6.889-2.861.025-3.022-4.482-2.924-6.694-2.876l-.657.01-.048 5.722.51.005zm4.301-16.517c3.397.315 6.075 1.347 6.348 4.424.21 2.251-.762 3.603-2.296 4.37 2.508.595 4.068 2.07 3.727 5.373-.422 4.105-3.527 5.186-7.968 5.452l-.036 4.286h-2.633l.036-4.252h-2.1l-.036 4.272h-2.628l.037-4.336h-1.881-3.424l.548-3.102s1.946.029 1.911 0c.522.031.967-.353 1.003-.86l.098-11.685c-.099-.715-.755-1.22-1.483-1.141.03-.034-1.911 0-1.911 0l.023-2.777h3.653 1.672l.036-4.267h2.612l-.035 4.183c.702-.025 1.409-.025 2.101-.025l.035-4.159h2.627l-.036 4.242z" fill="#fffbfd"/></g><g clip-path="url(#L)"><path d="M298.219 292c17.673 0 32-14.327 32-32s-14.327-32-32-32-32 14.327-32 32 14.327 32 32 32z" fill="url(#H)"/><path d="M298.219 292c17.673 0 32-14.327 32-32s-14.327-32-32-32-32 14.327-32 32 14.327 32 32 32z" fill="url(#I)"/><g fill="#fff"><path d="M293.234 277.799c0 .667-.445.889-1.111.889-8.221-2.666-13.998-10.22-13.998-19.108s5.777-16.442 13.998-19.108c.666-.222 1.111.222 1.111.889v1.555c0 .444-.222.889-.667 1.111-6.443 2.444-10.887 8.443-10.887 15.553s4.666 13.331 10.887 15.553c.445.222.667.667.667 1.111v1.555zm6.672-5.561a.96.96 0 0 1-.889.889h-1.778a.96.96 0 0 1-.888-.889v-2.666c-3.555-.444-5.333-2.444-5.999-5.333 0-.444.222-.888.666-.888h2c.444 0 .666.222.889.666.444 1.556 1.333 2.889 4.221 2.889 2.222 0 3.777-1.111 3.777-2.889s-.888-2.444-3.999-2.888c-4.666-.667-6.888-2-6.888-5.777 0-2.889 2.222-5.11 5.333-5.555v-2.666a.96.96 0 0 1 .888-.889h1.778a.96.96 0 0 1 .889.889v2.666c2.666.445 4.443 2 4.888 4.444 0 .444-.222.889-.667.889h-1.777c-.445 0-.667-.222-.889-.667-.444-1.555-1.555-2.222-3.555-2.222-2.222 0-3.333 1.111-3.333 2.667s.667 2.444 4 2.888c4.665.667 6.887 2 6.887 5.777 0 2.888-2.222 5.332-5.554 5.999v2.666zm4.221 6.451c-.667.222-1.111-.222-1.111-.889v-1.555c0-.444.222-.889.666-1.111 6.444-2.444 10.887-8.443 10.887-15.553s-4.666-13.331-10.887-15.553c-.444-.223-.666-.667-.666-1.111v-1.556c0-.666.444-.888 1.111-.888 7.998 2.666 13.997 10.22 13.997 19.108s-5.776 16.442-13.997 19.108z"/></g></g><use href="#M" x="-169.703" fill="#2470ff"/><use href="#M" x="-169.703" fill="url(#G)"/><g fill="#fffbfd"><path d="M129 73.5v24.174l-11.375-6.349L129 73.5z"/><path d="M129 73.5l11.375 17.825L129 97.674V73.5zm0 26.209v8.791l-11.375-15.137L129 99.709z"/><path d="M129 108.5v-8.791l11.376-6.346L129 108.5z"/></g><circle cx="213.688" cy="174.689" r="35" transform="rotate(45 213.688 174.689)" fill="url(#J)"/><path fill-rule="evenodd" d="M225.481 169.982a5 5 0 0 1-7.071-7.071 5 5 0 0 1 7.071 7.071zm-9.333 4.615c3.905 2.785 9.364 2.425 12.868-1.079a10 10 0 0 0 0-14.142c-3.905-3.905-10.237-3.905-14.142 0-3.503 3.503-3.864 8.958-1.082 12.863l-14.24 14.239a1.67 1.67 0 0 0 0 2.357c.651.651 1.707.651 2.357 0l1.178-1.177 2.359 2.359c.651.651 1.706.651 2.357 0s.651-1.706 0-2.357l-2.357-2.357 1.173-1.177.002.002 3.536 3.535c.651.651 1.706.651 2.357 0s.651-1.706 0-2.357l-3.536-3.535-.002-.002 7.172-7.172z" fill="#fffbfd"/><defs><linearGradient id="A" x1="93.719" y1="176" x2="333.719" y2="176" href="#N"><stop stop-color="#ff49a4" stop-opacity=".5"/><stop offset=".93" stop-color="#b049ff" stop-opacity=".5"/></linearGradient><linearGradient id="B" x1="148" y1="176" x2="280" y2="176" href="#N"><stop stop-color="#ff49a4" stop-opacity=".5"/><stop offset=".93" stop-color="#b049ff" stop-opacity=".5"/></linearGradient><linearGradient id="C" x1="148" y1="176" x2="280" y2="176" href="#N"><stop stop-color="#ff49a4"/><stop offset=".93" stop-color="#b049ff"/></linearGradient><linearGradient id="D" x1="47" y1="176" x2="381" y2="176" href="#N"><stop stop-color="#ff49a4"/><stop offset=".93" stop-color="#b049ff"/></linearGradient><linearGradient id="E" x1="147.793" y1="245.214" x2="107.17" y2="276.372" href="#N"><stop stop-color="#fa43bd"/><stop offset="1" stop-color="#ffa930"/></linearGradient><linearGradient id="F" x1="97.016" y1="260" x2="160.016" y2="260" href="#N"><stop stop-color="#732860"/><stop offset=".93" stop-color="#651c8d"/></linearGradient><linearGradient id="G" x1="266.219" y1="91" x2="330.219" y2="91" href="#N"><stop stop-color="#732860"/><stop offset=".93" stop-color="#651c8d"/></linearGradient><linearGradient id="H" x1="266.219" y1="260" x2="330.219" y2="260" href="#N"><stop stop-color="#ff49a4"/><stop offset=".93" stop-color="#b049ff"/></linearGradient><linearGradient id="I" x1="266.219" y1="260" x2="330.219" y2="260" href="#N"><stop stop-color="#732860"/><stop offset=".93" stop-color="#651c8d"/></linearGradient><linearGradient id="J" x1="178.687" y1="174.689" x2="248.687" y2="174.689" href="#N"><stop stop-color="#ff49a4"/><stop offset=".93" stop-color="#b049ff"/></linearGradient><clipPath id="K"><path fill="#fff" transform="translate(266.219 59)" d="M0 0h64v64H0z"/></clipPath><clipPath id="L"><path fill="#fff" transform="translate(266.219 228)" d="M0 0h64v64H0z"/></clipPath><path id="M" d="M298.219 123c17.673 0 32-14.327 32-32s-14.327-32-32-32-32 14.327-32 32 14.327 32 32 32z"/><linearGradient id="N" gradientUnits="userSpaceOnUse"/></defs></svg>
